X: 36458
T: Second Victory, The
R: jig
M: 6/8
K: Aminor
cBA BAG|AcA GED|EAA Bcd|ege age|
d^cd e=cA|ABA GED|EAB ced|cAG A2:|
cBc efg|GAG EGD|cBc d^cd|eAA ged|
eaf g2 e|dge dBG|EAB =ced|cAG A2:|
aAB cBA|EAB caf|gfg dBG|BBA Bcd|
eaf g2 e|dge dBG|EAB ced|cAG A2:|

